!!!OTL: 211. Beygele
!!!Genre:	Beygele
!!!Mode:	Freygish
!!!Listening/dance:	dance
!!!One_Mode:	yes
**kern
*I"P1
*clefG2
*k[b-e-a-]
*G:frey
*M2/4
*>A
=1
16bnLL
16cc
16bn
16a-JJ
8gL
8gJ
=2
16bnLL
16cc
16bn
16a-JJ
8gL
8gJ
=3
4cc
16ee-LL
16dd
16cc
16ee-JJ
=4
4dd
(8qff#X/
8ggL)
(8qff#/
8ggJ)
=5
16bnLL
16cc
16b
16a-JJ
8gL
8gJ
=6
16bnLL
16cc
16b
16a-JJ
8gL
8gJ
=7
(16ddLL
16cc)
(16cc
16bnJJ)
(16bLL
16a-)
(16a-
16gJJ)
=8
2g
=9:|!
*>B
8.bnL
16ddk
8cc
8ccJ
=10
8ccL
8ccJ
8r
8cc
=11
8.ddL
16cck
8bn
8gJ
=12
8bnL
8bJ
8r
8g
=13
8.bnL
16ddk
8cc
8ccJ
=14
8ccL
8anJ
8r
8a
=15
8ddL
8cc
8bn
8a-XJ
=16
(8a-
4.g)
==
*-
